X:1
T:The Boars' Head Carol
M:4/4
L:1/4
K:Bb
 z2 z F| B2 B3/2 B/2| A B F3/2 D/2| E E G3/2 E/2| F3/2 F/2 B F/2F/2|\
 B B/2B/2 B B| A B F3/2 D/2| E E G3/2 E/2| F F B2| B3/2 B/2 A A| B B F2|\
 E E G3/2 E/2| F F B2|
